static/assets/images/tokens/usdx.svg

<svg width="256" height="256" viewBox="0 0 256 256" fill="none" xmlns="http://www.w3.org/2000/svg">
<path d="M256 128C256 198.689 198.689 256 128 256C57.2998 256 0 198.689 0 128C0 57.2891 57.2998 0 128 0C198.7 0 256 57.2998 256 128Z" fill="#1F7A55"/>
<path d="M199.633 53.0117C182.566 53.0117 165.971 53.0332 149.355 53.001C145.227 53.001 142.033 54.5447 139.556 57.868C132.224 67.7306 124.816 77.5183 117.441 87.3487L107.063 101.167L106.131 99.9879C99.3233 90.8971 92.4301 81.8385 85.6871 72.6834C83.4358 69.6389 80.7022 68.1809 76.8643 68.2238C65.8868 68.3524 54.8985 68.2667 43.9209 68.2667H41.8305L43.0955 69.9926C57.3427 88.8817 71.5792 107.771 85.8693 126.617C86.6948 127.721 86.7377 128.386 85.8908 129.512C71.6543 148.401 57.4606 167.333 43.2563 186.254C42.9347 186.693 42.6345 187.144 42.1521 187.84H44.2425C55.2201 187.84 66.2084 187.787 77.1859 187.873C78.7779 187.945 80.362 187.611 81.7892 186.902C83.2164 186.193 84.4398 185.133 85.344 183.82C92.2265 174.558 99.1732 165.339 106.109 156.109C106.399 155.733 106.72 155.38 107.085 154.951L108.028 156.13C118.491 170.098 128.997 184.056 139.417 198.046C141.968 201.477 145.206 203.106 149.473 203.095C165.124 203.042 180.776 203.074 196.427 203.074H199.29L143.008 128.096L199.633 53.0117ZM173.175 189.438C173.336 189.652 173.497 189.867 173.915 190.381C165.821 190.381 158.092 190.403 150.362 190.328C149.794 190.328 149.097 189.684 148.69 189.148C139.899 177.485 131.13 165.789 122.361 154.104C116.12 145.779 109.881 137.453 103.644 129.126L102.829 127.957C107.535 121.707 112.198 115.468 116.872 109.25C127.443 95.1638 138.045 81.0774 148.604 66.9588C148.891 66.5178 149.291 66.1624 149.763 65.9303C150.235 65.6982 150.76 65.5979 151.284 65.6402C158.778 65.6938 166.271 65.6724 174.044 65.6724C173.647 66.262 173.4 66.6801 173.122 67.066C158.167 86.8985 143.212 106.742 128.214 126.563C127.357 127.678 127.303 128.386 128.182 129.565C143.212 149.505 158.188 169.477 173.175 189.438Z" fill="white"/>
</svg>

<svg xmlns="http://www.w3.org/2000/svg" fill="none" viewBox="0 0 256 256"><path fill="#1F7A55" d="M256 128c0 70.689-57.311 128-128 128C57.3 256 0 198.689 0 128 0 57.29 57.3 0 128 0s128 57.3 128 128"/><path fill="#fff" d="M199.633 53.012c-17.067 0-33.662.021-50.278-.011-4.128 0-7.322 1.544-9.799 4.867-7.332 9.863-14.74 19.65-22.115 29.48l-10.378 13.819-.932-1.18c-6.808-9.09-13.7-18.148-20.444-27.304-2.251-3.044-4.985-4.502-8.823-4.46-10.977.13-21.966.044-32.943.044h-2.09l1.264 1.726C57.344 88.882 71.58 107.77 85.87 126.617c.826 1.104.869 1.769.022 2.895-14.237 18.889-28.43 37.821-42.635 56.742-.321.439-.621.89-1.104 1.586h2.09c10.978 0 21.966-.053 32.944.033a9.39 9.39 0 0 0 8.158-4.053c6.883-9.262 13.83-18.481 20.765-27.711.29-.376.611-.729.976-1.158l.943 1.179c10.463 13.968 20.969 27.926 31.389 41.916 2.551 3.431 5.789 5.06 10.056 5.049 15.651-.053 31.303-.021 46.954-.021h2.863l-56.282-74.978zm-26.458 136.426c.161.214.322.429.74.943-8.094 0-15.823.022-23.553-.053-.568 0-1.265-.644-1.672-1.18-8.791-11.663-17.56-23.359-26.329-35.044q-9.361-12.487-18.717-24.978l-.815-1.169c4.706-6.25 9.369-12.489 14.043-18.707 10.571-14.086 21.173-28.173 31.732-42.291a2.92 2.92 0 0 1 2.68-1.319c7.494.054 14.987.032 22.76.032-.397.59-.644 1.008-.922 1.394-14.955 19.832-29.91 39.676-44.908 59.497-.857 1.115-.911 1.823-.032 3.002 15.03 19.94 30.006 39.912 44.993 59.873"/></svg>
